!!!COM: Scriabin, Alexander
!!!OTL@@FR: Prélude en do majeur
!!!OTL@@EN: Prelude in C Major
!!!OPR@@FR: 4 Préludes
!!!OPR@@EN: 4 Preludes
!!!OPS: 48
!!!ONM: 4
!!!ODT: 1905
!!!AGN: Prelude
**kern	**kern	**dynam
*staff2	*staff1	*staff1/2
*Ipiano	*Ipiano	*
*clefF4	*clefG2	*
*k[]	*k[]	*
*C:	*C:	*
*M3/4	*M3/4	*
=1	=1	=1
*^	*	*
[8qCC [8qC\	.	.	.
8.CCL] 8.C]	4B-X 4e	4g#X 4dd 4gg#X	.
16CCJk 16C	.	.	.
[8qFF [8qF\	.	.	.
4FF] 4F]	4A 4e-X	4a 4bn 4ee-X [4aa	.
*	*	*^	*
8r	4F 4Bn 4f	12aL 12aa]	4b- 4ee-	.
.	.	12ggn 12gggn	.	.
8DD-X 8D-X	.	.	.	.
.	.	12ffJ 12fff	.	.
*v	*v	*	*	*
=2	=2	=2	=2
[8qGGG [8qGG\	.	.	.
2GGG] 2GG] 2F 2B 2f 2a 2b/	8eenL 8eeen	2aa 2bb	.
.	8ddn 8dddn	.	.
.	8ee 8eee	.	.
.	8b 8bb	.	.
[8qFF [8qF\	.	.	.
*	*v	*v	*
4FF] 4F] 4B 4d/	8a 8dd 8aa	.
.	8dJ 8dd	.
=3	=3	=3
[8qEE-X [8qE-X\	.	.
4EE-] 4E-] 4G 4d-X/	8.gL 8.dd-X 8.gg	.
.	16ggJk	.
[8qAAA-X [8qAA-X\	.	.
4AAA-] 4AA-] 4G-X 4c 4dn 4g-X/	4cc 4gg-X 4ccc	.
[8qDD [8qD\	.	.
4DD] 4D] 4F#X 4c 4en 4f#X/	4b 4ee 4ff#X 4bb	.
=4	=4	=4
*^	*	*
*	*^	*	*
[8qGGG [8qGG\	.	.	.	.
*	*	*	*^	*
2.GGG] 2.GG\]	2Fn 2B	8.eL 8.fn	8.eeL	2a 2ffn 2aa	.
.	.	16e-XJk	16ee-XJk	.	.
.	.	8.e-L	8.ee-L	.	.
.	.	16dJk	16ddJk	.	.
.	4d	4B 4f	4dd	4g 4gg	.
*	*	*	*v	*v	*
*	*v	*v	*	*
!!LO:LB:g=original
=5	=5	=5	=5
[8qCC [8qC\	.	.	.
8.CCL] 8.C]	4B-X 4e	4g#X 4dd 4gg#X	.
16CCJk 16C	.	.	.
[8qFF [8qF\	.	.	.
4FF] 4F]	4A 4e-X	4a 4bn 4ee-X [4aa	.
*	*	*^	*
8r	4F 4Bn 4f	12aL 12aa]	4b 4ee-	.
.	.	12ggn 12gggn	.	.
8DD-X 8D-X	.	.	.	.
.	.	12ffJ 12fff	.	.
*v	*v	*	*	*
=6	=6	=6	=6
[8qGGG [8qGG\	.	.	.
2GGG] 2GG] 2F 2B 2f 2a 2b/	8eenL 8eeen	2aa 2bb	.
.	8ddn 8dddn	.	.
.	8ee 8eee	.	.
.	8b 8bb	.	.
*	*v	*v	*
4GG 4F 4B/	8a 8dd 8aa	.
.	8dJ 8dd	.
=7	=7	=7
[8qCC [8qC\	.	.
4CC] 4C] 4E 4B-X	8.eL 8.b-X 8.ee	.
.	16eeJk	.
[8qFFF [8qFF\	.	.
4FFF] 4FF] 4D#X 4A 4d#X	4a 4bn 4dd#X 4aa	.
[8qBBBn [8qBBn\	.	.
4BBB] 4BB] 4D# 4A 4d#	4g#X 4cc#X 4dd# 4gg#X	.
=8	=8	=8
*^	*	*
[8qEEE [8qEE\	.	.	.
*	*	*^	*
2EEE_ 2EE_ [2BBn	2A 2d#X	8.cc#XL	2f#X 2dd#X 2ff#X	.
.	.	16ccnJk	.	.
.	.	8ccL	.	.
.	.	8bJ	.	.
*	*	*v	*v	*
8.EEE] 8.EE] 8.BB]	8.G#X 8.B	8.e 8.b 8.ee	.
16ryy	16BBB-- 16BB--	16Gn 16d-X 16e-X	.
*v	*v	*	*
=9	=9	=9
8.AAA-X 8.AA-X	8.G-X 8.c 8.g-X	.
16AA- 16A-X	16fn 16ffn	.
4.G-X 4.c 4.en	4.b-X 4.een 4.bb-X	.
8AA-	8e 8ee	.
!!LO:LB:g=original
=10	=10	=10
*	*^	*
4DDD-X 4DD-X 4AA-X	8.ccL 8.ccc	4ee	.
.	16b-XJk 16bb-X	.	.
4G-X 4c 4e	8.b-L 8.bb-	4cc 4ee	.
.	16b--Jk 16bb--	.	.
*	*v	*v	*
8.F 8.d-X 8.f	8.a-X 8.dd-X 8.ff 8.aa-X	.
16CC-X 16C-X	16An 16e-X 16f	.
=11	=11	=11
8.BBB-X 8.BB-X	8.A-X 8.dn 8.a-X	.
16BB- 16B-X	16gn 16ggn	.
4.A-X 4.dn 4.f#X	4.cc 4.ff#X 4.ccc	.
8BB-	8f#X 8ff#	.
=12	=12	=12
*	*^	*
4EEE-X 4EE-X 4BB-X	8.ddL 8.ddd	4ff#X	.
.	16ccJk 16ccc	.	.
4A-X 4d 4f#X	8.ccL 8.ccc	4dd 4ff#	.
.	16cc-XJk 16ccc-X	.	.
*	*v	*v	*
8.G 8.e-X 8.g	8.b-X 8.ee-X 8.gg 8.bb-X	.
16FF-X 16F-X	16d 16a-X 16b-	.
=13	=13	=13
8.EE-X 8.E-X	8.d-X 8.g 8.dd-X	.
16E- 16e-X	16ccn 16cccn	.
*clefG2	*	*
4.d-X 4.g 4.bn	4.ffn 4.bbn 4.fffn	.
*clefF4	*	*
8E-	8bn 8bb	.
!!LO:LB:g=original
=14	=14	=14
*	*^	*
8.AAA-XL 8.AA-X 8.E-X	8.ggL 8.ggg	4gg 4bb	.
*clefG2	*	*	*
16d-XJk 16g 16b	16ffJk 16fff	.	.
4c 4a-X 4cc	8.ff-XL 8.fff-X	4aa-X 4ccc	.
.	16ee-XJk 16eee-X	.	.
*	*v	*v	*
4c 4g 4cc	4ee- 4gg 4ccc 4eee-	.
*clefF4	*	*
=15	=15	=15
4DDn 4Dn	4r	.
*clefG2	*	*
4c 4en 4g 4b	4een 4gg 4eeen	.
*clefF4	*	*
*	*^	*
4D 4c 4f#X	8.bL 8.bb	4ff#X	.
.	16anJk 16aan	.	.
=16	=16	=16	=16
*^	*	*	*
*	*^	*	*	*
2.GG\	2Fn 2B	8.eL	8.eeL	2a 2ffn 2aa	.
.	.	16e-XJk	16ee-XJk	.	.
.	.	8.e-L	8.ee-L	.	.
.	.	16dJk	16ddJk	.	.
.	4d	4B 4f	4g 4gg	4dd	.
*	*	*	*v	*v	*
*	*v	*v	*	*
=17	=17	=17	=17
[8qCC [8qC\	.	.	.
8.CCL] 8.C]	4B-X 4en	4g#X 4dd 4gg#X	.
16CCJk 16C	.	.	.
[8qFF [8qF\	.	.	.
4FF] 4F]	4A 4e-X	4a 4bn 4ee-X [4aa	.
*	*	*^	*
8r	4F 4Bn 4f	12aL 12aa]	4b 4ee-	.
.	.	12ggn 12gggn	.	.
8DD-X 8D-X	.	.	.	.
.	.	12ffJ 12fff	.	.
*v	*v	*	*	*
!!LO:LB:g=original
=18	=18	=18	=18
[8qGGG [8qGG\	.	.	.
2GGG] 2GG] 2F 2B 2f 2a 2b/	8eenL 8eeen	2aa 2bb	.
.	8ddn 8dddn	.	.
.	8ee 8eee	.	.
.	8b 8bb	.	.
[8qFF [8qF\	.	.	.
4FF] 4F] 4B 4d/	8a 8aa	4dd	.
.	8dJ 8dd	.	.
*	*v	*v	*
=19	=19	=19
[8qEE-X [8qE-X\	.	.
4EE-] 4E-] 4G 4d-X/	8.gL 8.dd-X 8.gg	.
.	16ggJk	.
[8qAAA-X [8qAA-X\	.	.
4AAA-] 4AA-] 4G-X 4c 4g-X/	8.ccL 8.gg-X 8.ccc	.
.	16cccJk	.
[8qDDD-X [8qDD-X\	.	.
4DDD-] 4DD-] 4F 4B 4f/	4ff 4bb 4fff	.
=20	=20	=20
2.r	2.r	.
=21	=21	=21
2.r	2.r	.
=22	=22	=22
[8qGGG [8qGG	.	.
4GGG] 4GG] 4F 4B 4an	4ee 4aa 4bb 4eee	.
4r	4r	.
4r	4r	.
=23	=23	=23
16qCCCLL [16qCC	.	.
[16qGGJJ	.	.
4CC] 4GG] 4E 4c 4g	4ee 4gg 4ccc 4ggg	.
4r	4r	.
4r	4r	.
=24	=24	=24
2.r	2.r	.
==	==	==
*-	*-	*-
!!!system-decoration: {(*)}
!!!filter: flipper -a
!!!ENC: Bryan Jacob Bell
!!!END: November 2021 to April 2022
!!!PED: Günter Philipp
!!!PTL: Ausgewählte Klavierwerke (Edition Peters)
